packages/assets/static/images/icons/train-regional.svg

<svg width="24" height="24" viewBox="0 0 24 24" xmlns="http://www.w3.org/2000/svg">
<path d="M20.9738 10.3031L18.8747 2.60531C18.7881 2.28779 18.5995 2.00757 18.3379 1.80783C18.0763 1.60809 17.7563 1.49992 17.4272 1.5H6.57284C6.24372 1.49992 5.92371 1.60809 5.66214 1.80783C5.40056 2.00757 5.21194 2.28779 5.12534 2.60531L3.02628 10.3031C2.99157 10.4321 2.99157 10.5679 3.02628 10.6969L5.12534 18.3947C5.21194 18.7122 5.40056 18.9924 5.66214 19.1922C5.92371 19.3919 6.24372 19.5001 6.57284 19.5H7.50003L6.15003 21.3C6.09093 21.3788 6.04793 21.4685 6.02349 21.5639C5.99905 21.6593 5.99363 21.7586 6.00756 21.8561C6.02149 21.9536 6.05449 22.0474 6.10467 22.1321C6.15485 22.2169 6.22123 22.2909 6.30002 22.35C6.37882 22.4091 6.46848 22.4521 6.56389 22.4765C6.6593 22.501 6.75859 22.5064 6.85609 22.4925C6.95359 22.4785 7.0474 22.4455 7.13215 22.3954C7.2169 22.3452 7.29093 22.2788 7.35003 22.2L9.37502 19.5H14.625L16.65 22.2C16.7694 22.3591 16.947 22.4643 17.144 22.4925C17.3409 22.5206 17.5409 22.4693 17.7 22.35C17.8592 22.2307 17.9644 22.053 17.9925 21.8561C18.0206 21.6592 17.9694 21.4591 17.85 21.3L16.5 19.5H17.4272C17.7563 19.5001 18.0763 19.3919 18.3379 19.1922C18.5995 18.9924 18.7881 18.7122 18.8747 18.3947L20.9738 10.6969C21.0085 10.5679 21.0085 10.4321 20.9738 10.3031ZM6.57284 3H17.4272L19.3125 9.90844L12 11.2378L4.68753 9.90844L6.57284 3ZM4.79159 11.4506L11.25 12.6263V18H6.57284L4.79159 11.4506ZM17.4272 18H12.75V12.6263L19.2132 11.4506L17.4272 18ZM8.25003 7.5C8.25003 7.30109 8.32904 7.11032 8.4697 6.96967C8.61035 6.82902 8.80111 6.75 9.00003 6.75H15C15.1989 6.75 15.3897 6.82902 15.5304 6.96967C15.671 7.11032 15.75 7.30109 15.75 7.5C15.75 7.69891 15.671 7.88968 15.5304 8.03033C15.3897 8.17098 15.1989 8.25 15 8.25H9.00003C8.80111 8.25 8.61035 8.17098 8.4697 8.03033C8.32904 7.88968 8.25003 7.69891 8.25003 7.5Z"/>
</svg>

<svg viewBox="0 0 24 24" xmlns="http://www.w3.org/2000/svg" aria-hidden="true" fill="currentColor"><path d="m20.974 10.303-2.1-7.698A1.5 1.5 0 0 0 17.428 1.5H6.573a1.5 1.5 0 0 0-1.448 1.105l-2.099 7.698a.76.76 0 0 0 0 .394l2.1 7.698A1.5 1.5 0 0 0 6.572 19.5H7.5l-1.35 1.8a.75.75 0 0 0 1.2.9l2.025-2.7h5.25l2.025 2.7a.75.75 0 0 0 1.2-.9l-1.35-1.8h.927a1.5 1.5 0 0 0 1.448-1.105l2.099-7.698a.76.76 0 0 0 0-.394M6.573 3h10.854l1.886 6.908L12 11.238l-7.312-1.33zm-1.781 8.45 6.458 1.176V18H6.573zM17.427 18H12.75v-5.374l6.463-1.175zM8.25 7.5A.75.75 0 0 1 9 6.75h6a.75.75 0 0 1 0 1.5H9a.75.75 0 0 1-.75-.75"/></svg>
